X: 890
T: How Are You Kitty?
B:O'Neill's 890
Z:Transcribed by Dan G. Petersen, dangp@post6.tele.dk
M:6/8
L:1/8
K:A
(A/F/)|EAA cAA|eAA cAA|EAA cBA|dBB B2c|
A3 cAA|eAA cBA|EFA Bcd|cAA A2:|
(c/e/)|a3 gfe|cef ecA|EAA cBA|dBB Bce|
a3 gfe|c2e dBA|EFA Bcd|cAA A2:|
(c/d/|e2)(a/e/ c2)(e/c/|A2)(c/A/ E2)z|A3 cBA|cBB B2(c/d/|
e2)(a/e/ c2)(e/c/|A2)(c/A/ E2)z|A3 Bcd|cAA A2:|


